gama.ui.shared/icons_svg/light/views/tabs/view.display.svg

<?xml version="1.0" encoding="UTF-8" standalone="no"?>
<!DOCTYPE svg PUBLIC "-//W3C//DTD SVG 1.1//EN" "http://www.w3.org/Graphics/SVG/1.1/DTD/svg11.dtd">
<svg xmlns="http://www.w3.org/2000/svg" xmlns:dc="http://purl.org/dc/elements/1.1/" version="1.1" xmlns:xl="http://www.w3.org/1999/xlink" viewBox="-818.6491 -2973.7685 24.75 24.75" width="24.75" height="24.75">
  <defs/>
  <g id="SOURCES" fill="none" stroke="none" stroke-dasharray="none" fill-opacity="1" stroke-opacity="1">
    <title>SOURCES</title>
    <g id="SOURCES_Light">
      <title>Light</title>
      <g id="Group_12733">
        <g id="Group_9824">
          <title>image-circle</title>
          <g id="Graphic_9825">
            <path d="M -812.3501 -2959.7275 C -811.6151 -2957.0605 -809.1721 -2955.0935 -806.2741 -2955.0935 C -803.9431 -2955.0935 -801.9061 -2956.3605 -800.8211 -2958.2435 L -803.1241 -2960.5465 L -804.9791 -2958.6915 C -805.1191 -2958.5515 -805.3361 -2958.5515 -805.4761 -2958.6915 L -809.4311 -2962.6465 L -812.3291 -2959.7485 C -812.3291 -2959.7485 -812.3431 -2959.7345 -812.3501 -2959.7275 Z M -812.5181 -2960.5465 L -809.6691 -2963.3955 C -809.5291 -2963.5355 -809.3121 -2963.5355 -809.1721 -2963.3955 L -805.2171 -2959.4405 L -803.3621 -2961.2955 C -803.2221 -2961.4355 -803.0051 -2961.4355 -802.8651 -2961.2955 L -800.4781 -2958.9085 C -800.1491 -2959.6715 -799.9671 -2960.5185 -799.9671 -2961.4005 C -799.9671 -2964.8795 -802.7881 -2967.7005 -806.2671 -2967.7005 C -809.7461 -2967.7005 -812.5741 -2964.8725 -812.5741 -2961.3935 C -812.5741 -2961.1065 -812.5531 -2960.8195 -812.5181 -2960.5465 Z M -806.2741 -2954.3935 C -810.1381 -2954.3935 -813.2741 -2957.5295 -813.2741 -2961.3935 C -813.2741 -2965.2575 -810.1381 -2968.3935 -806.2741 -2968.3935 C -802.4101 -2968.3935 -799.2741 -2965.2575 -799.2741 -2961.3935 C -799.2741 -2957.5295 -802.4101 -2954.3935 -806.2741 -2954.3935 Z M -804.1741 -2965.5935 L -802.7741 -2965.5935 C -802.3891 -2965.5935 -802.0741 -2965.2785 -802.0741 -2964.8935 L -802.0741 -2963.4935 C -802.0741 -2963.1085 -802.3891 -2962.7935 -802.7741 -2962.7935 L -804.1741 -2962.7935 C -804.5591 -2962.7935 -804.8741 -2963.1085 -804.8741 -2963.4935 L -804.8741 -2964.8935 C -804.8741 -2965.2785 -804.5591 -2965.5935 -804.1741 -2965.5935 Z M -804.1741 -2964.8935 L -804.1741 -2963.4935 L -802.7741 -2963.4935 L -802.7741 -2964.8935 Z" fill="#5c76a1"/>
          </g>
        </g>
        <g id="Graphic_12707"/>
      </g>
    </g>
  </g>
</svg>

<svg height="24.75" viewBox="-818.649 -2973.769 24.75 24.75" width="24.75" xmlns="http://www.w3.org/2000/svg"><path d="m-812.3501-2959.7275c.735 2.667 3.178 4.634 6.076 4.634 2.331 0 4.368-1.267 5.453-3.15l-2.303-2.303-1.855 1.855c-.14.14-.357.14-.497 0l-3.955-3.955-2.898 2.898s-.014.014-.021.021zm-.168-.819 2.849-2.849c.14-.14.357-.14.497 0l3.955 3.955 1.855-1.855c.14-.14.357-.14.497 0l2.387 2.387c.329-.763.511-1.61.511-2.492 0-3.479-2.821-6.3-6.3-6.3s-6.307 2.828-6.307 6.307c0 .287.021.574.056.847zm6.244 6.153c-3.864 0-7-3.136-7-7s3.136-7 7-7 7 3.136 7 7-3.136 7-7 7zm2.1-11.2h1.4c.385 0 .7.315.7.7v1.4c0 .385-.315.7-.7.7h-1.4c-.385 0-.7-.315-.7-.7v-1.4c0-.385.315-.7.7-.7zm0 .7v1.4h1.4v-1.4z" fill="#5c76a1"/></svg>
